svgs/konele.svg

<?xml version="1.0" encoding="UTF-8" standalone="no"?>
<svg
   width="192"
   height="192"
   viewBox="0 0 192 192"
   fill="none"
   version="1.1"
   id="svg14"
   xml:space="preserve"
   xmlns="http://www.w3.org/2000/svg"
   xmlns:svg="http://www.w3.org/2000/svg"><defs
     id="defs18"><filter
       id="mask-powermask-path-effect3828_inverse"
       style="color-interpolation-filters:sRGB"
       height="100"
       width="100"
       x="-50"
       y="-50"><feColorMatrix
         id="mask-powermask-path-effect3828_primitive1"
         values="1"
         type="saturate"
         result="fbSourceGraphic" /><feColorMatrix
         id="mask-powermask-path-effect3828_primitive2"
         values="-1 0 0 0 1 0 -1 0 0 1 0 0 -1 0 1 0 0 0 1 0 "
         in="fbSourceGraphic" /></filter><filter
       id="mask-powermask-path-effect3854_inverse"
       style="color-interpolation-filters:sRGB"
       height="100"
       width="100"
       x="-50"
       y="-50"><feColorMatrix
         id="mask-powermask-path-effect3854_primitive1"
         values="1"
         type="saturate"
         result="fbSourceGraphic" /><feColorMatrix
         id="mask-powermask-path-effect3854_primitive2"
         values="-1 0 0 0 1 0 -1 0 0 1 0 0 -1 0 1 0 0 0 1 0 "
         in="fbSourceGraphic" /></filter><filter
       id="mask-powermask-path-effect3872_inverse"
       style="color-interpolation-filters:sRGB"
       height="100"
       width="100"
       x="-50"
       y="-50"><feColorMatrix
         id="mask-powermask-path-effect3872_primitive1"
         values="1"
         type="saturate"
         result="fbSourceGraphic" /><feColorMatrix
         id="mask-powermask-path-effect3872_primitive2"
         values="-1 0 0 0 1 0 -1 0 0 1 0 0 -1 0 1 0 0 0 1 0 "
         in="fbSourceGraphic" /></filter><filter
       id="mask-powermask-path-effect3891_inverse"
       style="color-interpolation-filters:sRGB"
       height="100"
       width="100"
       x="-50"
       y="-50"><feColorMatrix
         id="mask-powermask-path-effect3891_primitive1"
         values="1"
         type="saturate"
         result="fbSourceGraphic" /><feColorMatrix
         id="mask-powermask-path-effect3891_primitive2"
         values="-1 0 0 0 1 0 -1 0 0 1 0 0 -1 0 1 0 0 0 1 0 "
         in="fbSourceGraphic" /></filter><clipPath
       clipPathUnits="userSpaceOnUse"
       id="clipPath3929"><circle
         style="display:none;fill:#ffffff;fill-opacity:1;stroke:none;stroke-width:12;stroke-dasharray:none"
         id="circle3931"
         clip-path="none"
         mask="none"
         r="6"
         cy="117.5"
         cx="117.5" /></clipPath><clipPath
       clipPathUnits="userSpaceOnUse"
       id="clipPath5965"><path
         id="lpe_path-effect5969"
         style="fill:#000000;fill-opacity:1;stroke:none;stroke-width:12;stroke-dasharray:none"
         class="powerclip"
         d="M 53.303001,53.303001 H 138.697 V 138.697 H 53.303001 Z M 121.697,115.697 a 6,6 0 0 0 -6,-6 6,6 0 0 0 -6,6 6,6 0 0 0 6,6 6,6 0 0 0 6,-6 z" /></clipPath><clipPath
       clipPathUnits="userSpaceOnUse"
       id="clipPath1036"><path
         style="color:#000000;fill:#000000;-inkscape-stroke:none"
         d="m 59.716797,120.875 c -4.194278,15.65326 -3.691487,30.79671 4.433594,42.55469 8.12508,11.75797 22.336325,16.79492 36.042969,16.79492 v -32.66406 c -6.753224,0 -8.338357,-1.49497 -9.171876,-2.70118 -0.833518,-1.2062 -2.452371,-5.45848 0.246094,-15.52929 z"
         id="path1038" /></clipPath></defs><path
     style="opacity:1;fill:none;stroke:#000000;stroke-width:12;stroke-linecap:round;stroke-linejoin:miter;stroke-dasharray:none;stroke-opacity:1"
     d="m 38.270599,100.41507 c 0,0 8.223171,45.11006 57.729401,45.11006 49.50623,0 57.7294,-45.11006 57.7294,-45.11006"
     id="path1" /><path
     id="path2"
     style="color:#000000;fill:#000000;stroke-linejoin:round;-inkscape-stroke:none"
     d="M 96 16 C 86.628699 16 78.032578 18.838166 71.527344 23.777344 C 65.022109 28.716522 60.521484 36.06681 60.521484 44.382812 L 60.521484 98.654297 C 60.521482 106.9703 65.022108 114.32058 71.527344 119.25977 C 78.032578 124.19894 86.628697 127.03711 96 127.03711 C 105.3713 127.03711 113.96741 124.19894 120.47266 119.25977 C 126.97789 114.32058 131.47852 106.9703 131.47852 98.654297 L 131.47852 44.382812 C 131.47852 36.066808 126.97789 28.716522 120.47266 23.777344 C 113.96741 18.838166 105.3713 15.999998 96 16 z M 96 28 C 102.90929 27.999998 109.05286 30.172473 113.2168 33.333984 C 117.38072 36.495497 119.47852 40.33758 119.47852 44.382812 L 119.47852 98.654297 C 119.47852 102.69954 117.38072 106.53967 113.2168 109.70117 C 109.05286 112.86269 102.90929 115.03711 96 115.03711 C 89.090707 115.03711 82.94713 112.86269 78.783203 109.70117 C 74.619276 106.53967 72.521483 102.69953 72.521484 98.654297 L 72.521484 44.382812 C 72.521484 40.337581 74.619276 36.495497 78.783203 33.333984 C 82.94713 30.172473 89.090708 28 96 28 z " /><path
     style="opacity:1;fill:none;stroke:#000000;stroke-width:12;stroke-linecap:round;stroke-linejoin:miter;stroke-dasharray:none;stroke-opacity:1"
     d="m 66.56611,170 h 58.86893"
     id="path6" /><path
     style="fill:none;stroke:#000000;stroke-width:12;stroke-linecap:butt;stroke-linejoin:miter;stroke-dasharray:none;stroke-opacity:1"
     d="M 96,145.52513 96.00057,170"
     id="path7" /></svg>

<svg xmlns="http://www.w3.org/2000/svg" width="192" height="192" fill="none" stroke="#000" stroke-width="12" viewBox="0 0 192 192"><path stroke-linecap="round" d="M38.27 100.415s8.224 45.11 57.73 45.11 57.73-45.11 57.73-45.11"/><path fill="#000" stroke="none" d="M96 16c-9.371 0-17.967 2.838-24.473 7.777-6.505 4.94-11.006 12.29-11.006 20.606v54.271c0 8.316 4.501 15.667 11.006 20.606 6.506 4.939 15.102 7.777 24.473 7.777 9.371 0 17.967-2.838 24.473-7.777 6.505-4.94 11.006-12.29 11.006-20.606V44.383c0-8.316-4.501-15.666-11.006-20.606C113.967 18.838 105.37 16 96 16zm0 12c6.91 0 13.053 2.172 17.217 5.334 4.164 3.161 6.262 7.004 6.262 11.049v54.271c0 4.046-2.098 7.886-6.262 11.047-4.164 3.162-10.308 5.336-17.217 5.336-6.91 0-13.053-2.174-17.217-5.336-4.164-3.161-6.262-7.001-6.262-11.047V44.383c0-4.045 2.098-7.888 6.262-11.049C82.947 30.172 89.091 28 96 28z"/><path stroke-linecap="round" d="M66.566 170h58.869"/><path d="M96 145.525V170"/></svg>
